X: 149122
Q: "Slow and Tenderly."
M: 6/8
L: 1/8
K: Am
uE |\
(A>BA) {B}uc2ud | {c}ve2vc dcB | {B}ve2vA (A>BA) | ^G3 z2uE |\
(A>BA) c2d | {c}e2c (deg) | e2c dcB | A3- A2 :|\
{e}ug |\
a>ba ug2uf | e2c deg | e2A A>BA | ^G3 z2uE |
a>ba g2f | e2c deg | e2A A>BA | ^G3 z2uE |\
c>Bc d>^cd |"^rall."e>^de Hc'2 b/a/ | e2c dcB | A3- A2 |]


